X:97
T:In the Garb of Old Gaul
C:arr. Carlo Minasi
M:C
L:1/8
B:Chappell's One Hundred Scotch Melodies
B:Arranged for the Concertina by Carlo Minasi
Q:"Maestoso  "1/4=130
Z:Peter Dunk 2012
K:G
!mf!D>D|G2 G>A (G>AB>A)|G2 D>D G2 (G>A)|\
B2 ([BG]>[cA]) ([BG]>[cA][dB]>[cA])|\
([BG]>AG>A) B2 ([BG]>[cA])|
%
[d2B2] [dB]>[dB] ([dB][=fd][ec]>[dG])|\
[c2E2] c>c (ced>c)|(B>AG>A) [c2A2] BA|\
L[A2F2D2] [AFD]>[AFD] [A2F2D2] z||
%
D>ED>E [FD]>[GE][FD]>[GE]|\
([AF]>[BG][AF]>[BG]) [c2A2] BA|\
(G>AG>A) ([BG]>[cA][BG]>[cA])|\
([dB]>[ec][dB]>[ec]) ([=f2d2] ed)|
%
.e.c.A.e .d.B.G.d|(cBAG) F2 E>D|\
(F>GA>B) (B>cB>A)|LG2 [GDB,]>[GDB,] [G2D2B,2]||

